src/main/resources/icons/VaadinIcons/icons/vaadin-icon.svg

<svg xmlns="http://www.w3.org/2000/svg" width="16" height="16" viewBox="0 0 16 16">
  <path fill="#00B4F0" fill-rule="evenodd" d="M14.6526012,8 C14.6526012,8.32369942 14.450289,8.60693642 14.167052,8.84971098 C14.1265896,8.84971098 14.1265896,8.84971098 14.1265896,8.84971098 L8.78554913,11.7225434 C8.66416185,11.8034682 8.50231214,11.8439306 8.34046243,11.8439306 C7.81445087,11.8439306 7.40982659,11.4393064 7.40982659,10.9132948 C7.40982659,10.5086705 7.61213873,10.2254335 8.05722543,10.0231214 L11.7393064,8.04046243 L8.05722543,6.05780347 C7.61213873,5.85549133 7.40982659,5.57225434 7.40982659,5.16763006 C7.40982659,4.6416185 7.81445087,4.23699422 8.34046243,4.23699422 C8.50231214,4.23699422 8.66416185,4.27745665 8.78554913,4.3583815 L14.1265896,7.23121387 C14.1265896,7.23121387 14.167052,7.23121387 14.167052,7.23121387 C14.450289,7.39306358 14.6526012,7.67630058 14.6526012,8 Z M6.72196532,7.95953757 C6.72196532,8 6.72196532,8 6.72196532,7.95953757 C6.72196532,8.40462428 6.3982659,8.7283237 5.99364162,8.76878613 L5.83179191,8.76878613 C5.46763006,8.76878613 5.14393064,9.05202312 5.14393064,9.4566474 L5.14393064,10.8728324 L5.14393064,13.1791908 L5.14393064,13.2196532 C5.14393064,13.6647399 4.98208092,14.0289017 4.73930636,14.3526012 C4.41560694,14.7572254 3.9300578,15 3.36358382,15 L1.98786127,15 C1.62369942,15 1.3,14.6763006 1.3,14.3121387 C1.3,14.0289017 1.46184971,13.8265896 1.66416185,13.7052023 C1.74508671,13.6647399 1.86647399,13.6242775 1.98786127,13.6242775 L2.43294798,13.6242775 C2.79710983,13.6242775 3.12080925,13.3410405 3.12080925,12.9364162 L3.12080925,11.4393064 L3.12080925,9.49710983 C3.12080925,8.76878613 3.64682081,8.16184971 4.37514451,8.04046243 C4.37514451,8.04046243 4.57745665,8 4.73930636,8 C4.57745665,8 4.37514451,7.95953757 4.37514451,7.95953757 C3.64682081,7.83815029 3.12080925,7.23121387 3.12080925,6.50289017 L3.12080925,4.56069364 L3.12080925,3.06358382 C3.12080925,2.69942197 2.83757225,2.37572254 2.43294798,2.37572254 L1.98786127,2.37572254 C1.86647399,2.37572254 1.74508671,2.33526012 1.66416185,2.29479769 C1.42138728,2.1734104 1.3,1.93063584 1.3,1.68786127 C1.3,1.32369942 1.62369942,1 1.98786127,1 L3.36358382,1 C3.9300578,1 4.41560694,1.24277457 4.73930636,1.64739884 C4.98208092,1.93063584 5.14393064,2.33526012 5.14393064,2.78034682 L5.14393064,2.82080925 L5.14393064,5.12716763 L5.14393064,6.5433526 C5.14393064,6.90751445 5.42716763,7.23121387 5.83179191,7.23121387 L5.99364162,7.23121387 C6.3982659,7.23121387 6.72196532,7.55491329 6.72196532,7.95953757 Z"/>
</svg>

<svg xmlns="http://www.w3.org/2000/svg" width="16" height="16" viewBox="0 0 16 16"><rect id="frame" width="16" height="16" fill="none"/><path fill="#00B4F0" fill-rule="evenodd" d="M14.653 8c0 .324-.203.607-.486.85h-.04l-5.341 2.873a.816.816 0 0 1-.446.12.916.916 0 0 1-.93-.93c0-.404.202-.688.647-.89L11.74 8.04 8.057 6.058c-.445-.203-.647-.486-.647-.89 0-.526.404-.931.93-.931.162 0 .324.04.446.121l5.34 2.873h.041c.283.162.486.445.486.769zm-7.931-.04c0 .04 0 .04 0 0a.798.798 0 0 1-.728.809h-.162a.682.682 0 0 0-.688.688v3.762c0 .446-.162.81-.405 1.134-.323.404-.809.647-1.375.647H1.988a.71.71 0 0 1-.688-.688c0-.283.162-.485.364-.607.081-.04.202-.08.324-.08h.445a.682.682 0 0 0 .688-.689V9.497c0-.728.526-1.335 1.254-1.457 0 0 .202-.04.364-.04-.162 0-.364-.04-.364-.04a1.477 1.477 0 0 1-1.254-1.457V3.064a.682.682 0 0 0-.688-.688h-.445a.762.762 0 0 1-.324-.081.668.668 0 0 1-.364-.607A.71.71 0 0 1 1.988 1h1.376c.566 0 1.052.243 1.375.647.243.284.405.688.405 1.133v3.763c0 .365.283.688.688.688h.162c.404 0 .728.324.728.729z"/></svg>
